X:1
T:Ohime crudele Amore
T:Giovanni Battista Zucchelli
T:Source : Canzonette a la Romana---Venetia---Ang.Gardano---1601. Editor : André Vierendeels (28/01/17).
T:Notes : Original clefs : C1, C2, F4 Editorial accidentals above ths staff Compose's name "Giovanni Battista Zuccarini" in the index of the bass part book
T:Ohime crudele Amore
T:©
T:©
C:Giovanni Battista Zucchelli
Z:©
%%score [ 1 2 3 ]
L:1/8
Q:1/4=122
M:4/4
K:F
V:1 treble nm="Soprano 1" snm="S 1"
V:2 treble nm="Soprano 2" snm="S 2"
V:3 bass nm="Bass" snm="B"
V:1
"^1)" z4 d4- | d4 c4- | c4 B4 | B8- | B4 A4 | G8 | F4 z4 | z2 F2 A2 G2 | B2 B2 A4 | G8 :: d6 cB | %11
w: Ohi-|* me|_ cru-|de|_ le'A-|mo-|re,|fe- ce sa-|lir- m'in al-|to,|non per- dar|
w: Non|_ mi|_ spia-|ce'il|_ mo-|ri-|re,|per ca- gion|co- si bel-|la,|mi do- glio|
 A6 B2 | c2 c2 Bc d2- | d2 cB ^c4 | d4 B4 | A2 c2 =B2 B2 | c6 c2 | B2 d2 c2 c2 | F2 E2 F2 G2 | %19
w: pa- ce'al|tra- va- glia- to co-||re, ma|per far- mi pe-|rir, ma|per far- mi pe-|rir di mag- gior|
w: sol, che'il|mio sov- ver- chi- o'ar-|* * * di-|re, hab-|bia tur- ba- ta,|hab- bia|tur- ba- ta la|miia reg- gi- a|
 A2 GF E4 | D8 :| %21
w: sal- * * *|to.|
w: stel- * * *|la.|
V:2
"^2)""^1)" B8 | A4 G4 | G8- | G4 F4 | E4 F4- | F2 ED E4 | F4 C2 E2 | D2 F3 E D2- | D2 G2 ^F4 | %9
w: Ohi-|me cru-|de-|* le'A-|mo- *||re, fe- ce|sa- lir- * *|* m'in al-|
w: Non|mi spia-|ce'il|_ mo-|ri- *||re, per ca-|gion co- * *|* si bel-|
 G8 :: z4 F4- | F2 ED C2 G2 | F2 E2 D2 G2 | E8 | D4 D4 | F2 E2 G2 D2 | E2 G2 F2 A2 | G2 G2 C2 E2 | %18
w: to,|non|_ per- dar pa- ce'al|tra- va- glio- to|co-|re; ma|per far- mi pe-|rir, ma per far-|mi pe- rir di|
w: la,|mi|_ do- glio sol, che'il|mio sov- ver- chio'ar-|di-|re, hab-|bia tur- ba- ta,|hab- bia tur- ba-|ta la mia reg-|
 D4 D4 |"^#" C2 D4 C2 | D8 :| %21
w: mag- gior|sal- * *|to.|
w: gi- a|stel- * *|la.|
V:3
"^3)""^1)""^4)" G,8 | F,4 _E,4 | _E,8- | E,4 D,4 | C,8- | C,8 | F,,2 F,2 A,2 G,2 | %7
w: Ohi-|me cru-|de-|* le'A-|mo-||re, fe- ce sa-|
w: Pur|con qual|che|_ con-|for-||to, fuor di vi-|
 B,3 A,/G,/ F,2 G,2 | G,A,B,C D4 | G,8 :: B,6 A,G, | F,6 G,2 | A,2 A,2 B,2 G,2 | A,8 | D,4 G,4 | %15
w: lir _ _ _ m'in|al- * * * *|to;|non per- dar|pa- ce'al|tra- va- glia- to|co-|re, ma|
w: ta _ _ _ u-|sci- * * * *|ria,|se quel- la|che nel|cor scol- pi- ta'io|por-|to, pla-|
 F,2 A,2 G,2 G,2 | C,2 C2 F,2 F,2 | G,2 G,2 A,2 A,,2 | B,,2 C,2 D,2 C,B,, | A,,8 | D,8 :| %21
w: per far- mi pe-|rir, ma per fa-|mi pe- rir di|mag- gior sal- * *||to.|
w: car po- te- sti|con mor- te mia,|pla- car po- te-|sti con mor- te _|mi-|a.|

